svgs/light/briefcase-arrow-right.svg

<svg xmlns="http://www.w3.org/2000/svg" viewBox="0 0 512 512"><!-- Font Awesome Pro 6.0.0-alpha2 by @fontawesome - https://fontawesome.com License - https://fontawesome.com/license (Commercial License) --><path d="M448 96H384V48C384 21.531 362.469 0 336 0H176C149.531 0 128 21.531 128 48V96H64C28.654 96 0 124.654 0 160V416C0 451.346 28.654 480 64 480H448C483.348 480 512 451.346 512 416V160C512 124.654 483.348 96 448 96ZM160 48C160 39.172 167.172 32 176 32H336C344.828 32 352 39.172 352 48V96H160V48ZM480 416C480 433.645 465.645 448 448 448H64C46.355 448 32 433.645 32 416V160C32 142.355 46.355 128 64 128H448C465.645 128 480 142.355 480 160V416ZM379.293 276.668L299.313 196.688C293.063 190.438 282.938 190.438 276.688 196.688S270.438 213.063 276.688 219.312L329.375 272H144C135.156 272 128 279.156 128 288S135.156 304 144 304H329.375L276.688 356.688C270.438 362.938 270.438 373.063 276.688 379.312C279.812 382.438 283.906 384 288 384S296.188 382.438 299.312 379.312L379.293 299.332C380.777 297.852 381.955 296.078 382.77 294.109C384.387 290.199 384.387 285.801 382.77 281.891C381.955 279.922 380.777 278.148 379.293 276.668Z"/></svg>

<svg xmlns="http://www.w3.org/2000/svg" viewBox="0 0 512 512"><!--! Font Awesome Pro 6.0.0-alpha3 by @fontawesome - https://fontawesome.com License - https://fontawesome.com/license (Commercial License) --><path d="M448 96h-64V48C384 21.53 362.5 0 336 0h-160C149.5 0 128 21.53 128 48V96H64C28.65 96 0 124.7 0 160v256c0 35.35 28.65 64 64 64h384c35.35 0 64-28.65 64-64V160C512 124.7 483.3 96 448 96zM160 48C160 39.17 167.2 32 176 32h160C344.8 32 352 39.17 352 48V96H160V48zM480 416c0 17.64-14.36 32-32 32H64c-17.64 0-32-14.36-32-32V160c0-17.64 14.36-32 32-32h384c17.64 0 32 14.36 32 32V416zM379.3 276.7l-79.98-79.98c-6.25-6.25-16.38-6.25-22.62 0s-6.25 16.38 0 22.62L329.4 272H144C135.2 272 128 279.2 128 288s7.156 16 16 16h185.4l-52.69 52.69c-6.25 6.25-6.25 16.38 0 22.62C279.8 382.4 283.9 384 288 384s8.188-1.562 11.31-4.688l79.98-79.98c1.484-1.48 2.662-3.254 3.477-5.223c1.617-3.91 1.617-8.309 0-12.22C381.1 279.9 380.8 278.1 379.3 276.7z"/></svg>
